!!!Genre:	Freylekhs
!!!Mode:	Major
!!!Listening/dance:	dance
!!!:	*g:dor
!!!One_Mode:	no
**kern
*thru
*I"P1
*clefG2
*k[f#]
*G:
*M2/4
*>A
=1
8g
4b
8g
=2
8aL
8b
8cc
8ddJ
=3
8r
4b
8g
=4
8ccL
8b
8a
8gJ
=5
8g
4b
8g
=6
8aL
8b
8cc
8ddJ
=7
8bL
8g
8a
8f#J
=8
2g
=9:|!
*k[b-]
*>bM
*g:dor
*>B
2gg
=10
(8qff#X/
2gg)
=11
(8qff#X/
4gg)
(8qff#/
4gg)
=12
(8qff#X/
4gg)
(8qff#/
4gg)
=13!|:
8dd
4gg
8ffn
=14
8ee
(8qgg/
8ff)
8ee
8ddJ
=15
8dd
4gg
8ff
=16
8eeL
(8qgg/
8ff)
8ee
8ddJ
=17
8dd
(8qff/
4ee)
8dd
=18
8cc#XL
(8qee/
8dd)
8cc#
8b-J
=19
8aL
8g
8a
8b-J
*>B1
=20
8cc#X
4dd
8r
*>B2
=21:|!
2g
*>eM
==
*-
